src/icons/logos/react.svg

<svg width="659" height="220" viewBox="0 0 659 220" fill="none" xmlns="http://www.w3.org/2000/svg">
<g clip-path="url(#clip0_463_526)">
<g clip-path="url(#clip1_463_526)">
<path d="M213.353 115.022C213.353 100.888 195.653 87.4937 168.517 79.1875C174.779 51.529 171.996 29.5239 159.732 22.4788C156.905 20.8263 153.6 20.0435 149.991 20.0435V29.7414C151.991 29.7414 153.6 30.1328 154.948 30.8721C160.863 34.2641 163.429 47.1801 161.428 63.7926C160.95 67.8805 160.167 72.1859 159.21 76.5782C150.687 74.4907 141.38 72.8817 131.595 71.8379C125.724 63.7926 119.636 56.4866 113.504 50.0938C127.681 36.9169 140.989 29.6979 150.034 29.6979V20C138.075 20 122.419 28.5237 106.59 43.3097C90.7599 28.6107 75.1041 20.174 63.1449 20.174V29.8718C72.1469 29.8718 85.4978 37.0474 99.675 50.1373C93.5866 56.5301 87.4983 63.7926 81.7144 71.8379C71.886 72.8817 62.5795 74.4907 54.0558 76.6216C53.0556 72.2728 52.3163 68.0545 51.7945 64.0101C49.7505 47.3976 52.2728 34.4816 58.1437 31.046C59.4484 30.2632 61.1444 29.9153 63.1449 29.9153V20.2174C59.4919 20.2174 56.1868 21.0002 53.3165 22.6528C41.0964 29.6979 38.3566 51.6594 44.6624 79.2309C17.6127 87.5807 0 100.932 0 115.022C0 129.155 17.6997 142.55 44.8363 150.856C38.574 178.515 41.3573 200.52 53.621 207.565C56.4477 209.217 59.7528 210 63.4058 210C75.3651 210 91.0208 201.476 106.851 186.69C122.68 201.389 138.336 209.826 150.295 209.826C153.948 209.826 157.253 209.043 160.124 207.391C172.344 200.346 175.084 178.384 168.778 150.813C195.74 142.506 213.353 129.112 213.353 115.022ZM156.731 86.0151C155.122 91.6251 153.122 97.409 150.861 103.193C149.078 99.7139 147.208 96.2348 145.164 92.7558C143.163 89.2767 141.032 85.8846 138.901 82.5795C145.077 83.4928 151.035 84.6235 156.731 86.0151ZM136.814 132.33C133.422 138.201 129.943 143.767 126.333 148.943C119.854 149.508 113.287 149.812 106.677 149.812C100.11 149.812 93.5431 149.508 87.1069 148.986C83.4974 143.811 79.9748 138.288 76.5827 132.461C73.2776 126.764 70.2769 120.98 67.5372 115.152C70.2335 109.325 73.2776 103.497 76.5393 97.8004C79.9313 91.9295 83.4104 86.363 87.0199 81.1879C93.4996 80.6226 100.066 80.3181 106.677 80.3181C113.243 80.3181 119.81 80.6226 126.246 81.1444C129.856 86.3195 133.378 91.8425 136.77 97.6699C140.076 103.367 143.076 109.151 145.816 114.978C143.076 120.806 140.076 126.633 136.814 132.33ZM150.861 126.677C153.209 132.504 155.209 138.331 156.862 143.985C151.165 145.377 145.164 146.551 138.945 147.464C141.076 144.115 143.207 140.68 145.207 137.157C147.208 133.678 149.078 130.156 150.861 126.677ZM106.764 173.079C102.719 168.904 98.6747 164.25 94.6738 159.162C98.5878 159.336 102.589 159.467 106.633 159.467C110.721 159.467 114.765 159.38 118.723 159.162C114.809 164.25 110.764 168.904 106.764 173.079ZM74.4083 147.464C68.233 146.551 62.2751 145.42 56.5782 144.028C58.1872 138.418 60.1877 132.634 62.4491 126.851C64.2321 130.33 66.1021 133.809 68.146 137.288C70.19 140.767 72.2774 144.159 74.4083 147.464ZM106.546 56.965C110.591 61.1398 114.635 65.7931 118.636 70.8812C114.722 70.7073 110.721 70.5768 106.677 70.5768C102.589 70.5768 98.5443 70.6638 94.5869 70.8812C98.5008 65.7931 102.545 61.1398 106.546 56.965ZM74.3648 82.5795C72.2339 85.9281 70.103 89.3637 68.1025 92.8862C66.1021 96.3653 64.2321 99.8444 62.4491 103.323C60.1007 97.496 58.1003 91.6686 56.4477 86.0151C62.1447 84.667 68.146 83.4928 74.3648 82.5795ZM35.008 137.027C19.6132 130.46 9.65438 121.849 9.65438 115.022C9.65438 108.194 19.6132 99.5399 35.008 93.0167C38.748 91.4076 42.8359 89.9725 47.0542 88.6244C49.5331 97.1481 52.7947 106.02 56.8391 115.109C52.8382 124.154 49.6201 132.982 47.1847 141.463C42.8794 140.114 38.7915 138.636 35.008 137.027ZM58.4047 199.171C52.4903 195.779 49.9245 182.863 51.9249 166.251C52.4033 162.163 53.1861 157.858 54.1428 153.465C62.6665 155.553 71.973 157.162 81.7578 158.206C87.6288 166.251 93.7171 173.557 99.8489 179.95C85.6718 193.127 72.3644 200.346 63.3188 200.346C61.3619 200.302 59.7093 199.911 58.4047 199.171ZM161.559 166.033C163.603 182.646 161.08 195.562 155.209 198.997C153.905 199.78 152.209 200.128 150.208 200.128C141.206 200.128 127.855 192.953 113.678 179.863C119.767 173.47 125.855 166.207 131.639 158.162C141.467 157.118 150.774 155.509 159.297 153.378C160.298 157.771 161.08 161.989 161.559 166.033ZM178.302 137.027C174.562 138.636 170.474 140.071 166.255 141.419C163.777 132.895 160.515 124.024 156.471 114.935C160.471 105.889 163.69 97.0611 166.125 88.5809C170.43 89.929 174.518 91.4076 178.345 93.0167C193.74 99.5834 203.699 108.194 203.699 115.022C203.655 121.849 193.696 130.504 178.302 137.027Z" fill="black"/>
<path d="M106.633 134.896C117.609 134.896 126.507 125.998 126.507 115.022C126.507 104.046 117.609 95.1476 106.633 95.1476C95.6567 95.1476 86.7588 104.046 86.7588 115.022C86.7588 125.998 95.6567 134.896 106.633 134.896Z" fill="black"/>
</g>
<path d="M264.3 169.944H286.472V131.325H303.359C303.554 131.325 303.75 131.325 303.946 131.325C304.142 131.325 304.313 131.325 304.46 131.325L324.21 169.944H349.319L327 128.021C333.02 125.672 337.719 121.781 341.096 116.348C344.473 110.915 346.162 104.772 346.162 97.9196V97.7727C346.162 90.7735 344.669 84.7531 341.683 79.7117C338.698 74.6702 334.366 70.8035 328.688 68.1115C323.059 65.3705 316.256 64 308.278 64H264.3V169.944ZM286.472 114.953V81.3269H305.561C311.092 81.3269 315.448 82.8442 318.63 85.8789C321.86 88.9135 323.476 92.976 323.476 98.0664V98.2132C323.476 103.45 321.909 107.562 318.777 110.548C315.693 113.484 311.386 114.953 305.855 114.953H286.472Z" fill="black"/>
<path d="M395.831 171.632C401.607 171.632 406.624 170.898 410.882 169.43C415.19 167.912 418.787 165.954 421.675 163.556C424.612 161.109 426.912 158.49 428.576 155.7C430.289 152.861 431.464 150.096 432.1 147.404L432.247 146.67H412.424L412.204 147.11C411.714 148.285 410.784 149.533 409.414 150.855C408.092 152.176 406.33 153.302 404.128 154.232C401.974 155.162 399.355 155.627 396.272 155.627C392.454 155.627 389.15 154.795 386.36 153.131C383.619 151.418 381.515 148.97 380.046 145.789C378.578 142.607 377.844 138.789 377.844 134.335V125.819C377.844 121.218 378.578 117.302 380.046 114.072C381.564 110.841 383.644 108.394 386.287 106.73C388.93 105.066 391.94 104.234 395.317 104.234C398.744 104.234 401.729 105.041 404.275 106.656C406.869 108.272 408.9 110.694 410.368 113.925C411.837 117.106 412.571 121.071 412.571 125.819V134.262L422.703 121.56H367.271V135.07H432.908V128.388C432.908 120.312 431.366 113.264 428.283 107.244C425.199 101.223 420.818 96.5491 415.141 93.2208C409.463 89.8924 402.733 88.2283 394.95 88.2283C387.168 88.2283 380.389 89.9414 374.613 93.3676C368.887 96.7938 364.457 101.639 361.324 107.905C358.192 114.121 356.626 121.487 356.626 130.004V130.077C356.626 138.594 358.192 145.96 361.324 152.176C364.506 158.392 369.009 163.189 374.834 166.566C380.707 169.944 387.706 171.632 395.831 171.632Z" fill="black"/>
<path d="M469.068 171.192C472.543 171.192 475.774 170.702 478.76 169.723C481.745 168.744 484.388 167.325 486.689 165.465C488.989 163.605 490.825 161.403 492.195 158.857H493.223V169.944H514.441V115.246C514.441 109.667 513.095 104.87 510.403 100.856C507.76 96.7938 503.942 93.6857 498.95 91.5321C493.957 89.3295 487.961 88.2283 480.962 88.2283C474.11 88.2283 468.138 89.2561 463.048 91.3119C458.006 93.3186 454.017 96.133 451.081 99.755C448.144 103.328 446.431 107.513 445.941 112.31L445.868 113.117H465.618L465.691 112.677C466.425 110.181 467.991 108.223 470.39 106.803C472.788 105.384 475.945 104.674 479.861 104.674C484.217 104.674 487.521 105.653 489.772 107.611C492.073 109.52 493.223 112.236 493.223 115.76V140.796C493.223 143.586 492.464 146.107 490.947 148.358C489.479 150.561 487.448 152.323 484.853 153.645C482.308 154.917 479.396 155.553 476.117 155.553C472.446 155.553 469.435 154.697 467.086 152.984C464.786 151.271 463.635 148.921 463.635 145.936V145.789C463.635 142.901 464.737 140.6 466.939 138.887C469.191 137.174 472.519 136.195 476.924 135.951L504.016 134.189V121.047L473.767 122.882C463.782 123.469 456.098 125.843 450.714 130.004C445.329 134.115 442.637 139.768 442.637 146.963V147.11C442.637 151.907 443.763 156.116 446.015 159.738C448.266 163.36 451.374 166.175 455.339 168.182C459.304 170.188 463.88 171.192 469.068 171.192Z" fill="black"/>
<path d="M566.901 171.632C573.949 171.632 580.018 170.384 585.108 167.888C590.248 165.392 594.31 161.941 597.296 157.536C600.331 153.082 602.142 147.967 602.729 142.191L602.802 141.677L582.832 141.751L582.759 142.118C581.878 146.18 580.116 149.313 577.473 151.515C574.879 153.718 571.404 154.819 567.047 154.819C563.327 154.819 560.146 153.865 557.503 151.956C554.909 149.998 552.902 147.159 551.483 143.439C550.112 139.719 549.427 135.192 549.427 129.857V129.783C549.427 124.497 550.112 120.019 551.483 116.348C552.853 112.677 554.86 109.887 557.503 107.978C560.146 106.02 563.303 105.041 566.974 105.041C571.526 105.041 575.123 106.265 577.767 108.712C580.41 111.111 582.074 114.243 582.759 118.11L582.832 118.477H602.729L602.802 118.11C602.264 112.236 600.502 107.072 597.516 102.618C594.579 98.1154 590.517 94.5912 585.329 92.0461C580.14 89.5009 573.973 88.2283 566.827 88.2283C558.604 88.2283 551.556 89.8924 545.682 93.2208C539.858 96.5001 535.379 101.223 532.247 107.391C529.163 113.558 527.621 120.998 527.621 129.71V129.857C527.621 138.618 529.163 146.131 532.247 152.396C535.379 158.613 539.882 163.385 545.756 166.713C551.629 169.993 558.678 171.632 566.901 171.632Z" fill="black"/>
<path d="M648.727 170.751C650.832 170.751 652.79 170.653 654.601 170.458C656.461 170.311 658.027 170.115 659.3 169.87V154.012C658.419 154.11 657.538 154.207 656.657 154.305C655.825 154.354 654.821 154.379 653.647 154.379C650.122 154.379 647.528 153.596 645.864 152.029C644.249 150.414 643.441 147.771 643.441 144.1V106.069H659.3V89.9169H643.441V70.6811H621.783V89.9169H609.962V106.069H621.783V148.065C621.783 156.141 623.912 161.941 628.17 165.465C632.477 168.989 639.33 170.751 648.727 170.751Z" fill="black"/>
</g>
<defs>
<clipPath id="clip0_463_526">
<rect width="659" height="220" fill="white"/>
</clipPath>
<clipPath id="clip1_463_526">
<rect width="213.353" height="190" fill="white" transform="translate(0 20)"/>
</clipPath>
</defs>
</svg>

<svg xmlns="http://www.w3.org/2000/svg" width="659" height="220" fill="none">
    <g fill="#000" clip-path="url(#a)">
        <g clip-path="url(#b)">
            <path
                d="M213.353 115.022c0-14.134-17.7-27.528-44.836-35.835 6.262-27.658 3.479-49.663-8.785-56.708-2.827-1.653-6.132-2.435-9.741-2.435v9.697c2 0 3.609.392 4.957 1.131 5.915 3.392 8.481 16.308 6.48 32.92-.478 4.088-1.261 8.394-2.218 12.786-8.523-2.087-17.83-3.696-27.615-4.74-5.871-8.045-11.959-15.351-18.091-21.744 14.177-13.177 27.485-20.396 36.53-20.396V20c-11.959 0-27.615 8.524-43.444 23.31-15.83-14.7-31.486-23.136-43.445-23.136v9.698c9.002 0 22.353 7.175 36.53 20.265a205.396 205.396 0 0 0-17.96 21.7c-9.829 1.045-19.136 2.654-27.66 4.785-1-4.35-1.739-8.567-2.26-12.612-2.044-16.612.478-29.528 6.349-32.964 1.304-.783 3-1.13 5-1.13v-9.699c-3.652 0-6.957.783-9.828 2.436-12.22 7.045-14.96 29.006-8.654 56.578C17.612 87.58 0 100.932 0 115.022c0 14.133 17.7 27.528 44.836 35.834-6.262 27.659-3.479 49.664 8.785 56.709 2.827 1.652 6.132 2.435 9.785 2.435 11.96 0 27.615-8.524 43.445-23.31 15.829 14.699 31.485 23.136 43.444 23.136 3.653 0 6.958-.783 9.829-2.435 12.22-7.045 14.96-29.007 8.654-56.578 26.962-8.307 44.575-21.701 44.575-35.791Zm-56.622-29.007c-1.609 5.61-3.609 11.394-5.87 17.178-1.783-3.48-3.653-6.958-5.697-10.437-2.001-3.48-4.132-6.871-6.263-10.177 6.176.914 12.134 2.045 17.83 3.436Zm-19.917 46.315c-3.392 5.871-6.871 11.437-10.481 16.613-6.479.565-13.046.869-19.656.869-6.567 0-13.134-.304-19.57-.826a239.807 239.807 0 0 1-10.524-16.525 226.419 226.419 0 0 1-9.046-17.309c2.697-5.827 5.74-11.655 9.002-17.352 3.392-5.87 6.871-11.437 10.48-16.612 6.48-.565 13.047-.87 19.658-.87 6.566 0 13.133.305 19.569.826A239.52 239.52 0 0 1 136.77 97.67a226.399 226.399 0 0 1 9.046 17.308 243.324 243.324 0 0 1-9.002 17.352Zm14.047-5.653a186.504 186.504 0 0 1 6.001 17.308 194.953 194.953 0 0 1-17.917 3.479c2.131-3.349 4.262-6.784 6.262-10.307 2.001-3.479 3.871-7.001 5.654-10.48Zm-44.097 46.402c-4.045-4.175-8.09-8.829-12.09-13.917 3.914.174 7.915.305 11.959.305 4.088 0 8.132-.087 12.09-.305a169.992 169.992 0 0 1-11.959 13.917Zm-32.356-25.615c-6.175-.913-12.133-2.044-17.83-3.436 1.61-5.61 3.61-11.394 5.871-17.177 1.783 3.479 3.653 6.958 5.697 10.437a288.083 288.083 0 0 0 6.262 10.176Zm32.138-90.499c4.045 4.175 8.089 8.828 12.09 13.916-3.914-.174-7.915-.304-11.959-.304-4.088 0-8.133.087-12.09.304a169.713 169.713 0 0 1 11.959-13.916ZM74.365 82.579c-2.131 3.35-4.262 6.785-6.262 10.307-2 3.48-3.87 6.958-5.654 10.437a186.324 186.324 0 0 1-6.001-17.308 211.236 211.236 0 0 1 17.917-3.436Zm-39.357 54.448c-15.395-6.567-25.354-15.178-25.354-22.005 0-6.828 9.96-15.482 25.354-22.005 3.74-1.61 7.828-3.044 12.046-4.393 2.48 8.524 5.74 17.396 9.785 26.485-4 9.045-7.219 17.873-9.654 26.354-4.306-1.349-8.394-2.827-12.177-4.436Zm23.397 62.144c-5.915-3.392-8.48-16.308-6.48-32.92.478-4.088 1.261-8.393 2.218-12.786 8.523 2.088 17.83 3.697 27.615 4.741 5.87 8.045 11.96 15.351 18.09 21.744-14.176 13.177-27.484 20.396-36.53 20.396-1.956-.044-3.609-.435-4.913-1.175Zm103.154-33.138c2.044 16.613-.479 29.529-6.35 32.964-1.304.783-3 1.131-5.001 1.131-9.002 0-22.353-7.175-36.53-20.265a205.394 205.394 0 0 0 17.961-21.701c9.828-1.044 19.135-2.653 27.658-4.784 1.001 4.393 1.783 8.611 2.262 12.655Zm16.743-29.006c-3.74 1.609-7.828 3.044-12.047 4.392-2.478-8.524-5.74-17.395-9.784-26.484 4-9.046 7.219-17.874 9.654-26.354 4.305 1.348 8.393 2.827 12.22 4.436 15.395 6.566 25.354 15.177 25.354 22.005-.044 6.827-10.003 15.482-25.397 22.005Z" />
            <path
                d="M106.633 134.896c10.976 0 19.874-8.898 19.874-19.874 0-10.976-8.898-19.874-19.874-19.874-10.976 0-19.874 8.898-19.874 19.874 0 10.976 8.898 19.874 19.874 19.874Z" />
        </g>
        <path
            d="M264.3 169.944h22.172v-38.619h17.988l19.75 38.619h25.109L327 128.021c6.02-2.349 10.719-6.24 14.096-11.673 3.377-5.433 5.066-11.576 5.066-18.428v-.147c0-7-1.493-13.02-4.479-18.061-2.985-5.042-7.317-8.909-12.995-11.6C323.059 65.37 316.256 64 308.278 64H264.3v105.944Zm22.172-54.991V81.327h19.089c5.531 0 9.887 1.517 13.069 4.552 3.23 3.034 4.846 7.097 4.846 12.187v.147c0 5.237-1.567 9.349-4.699 12.335-3.084 2.936-7.391 4.405-12.922 4.405h-19.383ZM395.831 171.632c5.776 0 10.793-.734 15.051-2.202 4.308-1.518 7.905-3.476 10.793-5.874 2.937-2.447 5.237-5.066 6.901-7.856 1.713-2.839 2.888-5.604 3.524-8.296l.147-.734h-19.823l-.22.44c-.49 1.175-1.42 2.423-2.79 3.745-1.322 1.321-3.084 2.447-5.286 3.377-2.154.93-4.773 1.395-7.856 1.395-3.818 0-7.122-.832-9.912-2.496-2.741-1.713-4.845-4.161-6.314-7.342-1.468-3.182-2.202-7-2.202-11.454v-8.516c0-4.601.734-8.517 2.202-11.747 1.518-3.231 3.598-5.678 6.241-7.342 2.643-1.664 5.653-2.496 9.03-2.496 3.427 0 6.412.807 8.958 2.422 2.594 1.616 4.625 4.038 6.093 7.269 1.469 3.181 2.203 7.146 2.203 11.894v8.443l10.132-12.702h-55.432v13.51h65.637v-6.682c0-8.076-1.542-15.124-4.625-21.144-3.084-6.021-7.465-10.695-13.142-14.023-5.678-3.329-12.408-4.993-20.191-4.993-7.782 0-14.561 1.713-20.337 5.14-5.726 3.426-10.156 8.271-13.289 14.537-3.132 6.216-4.698 13.582-4.698 22.099v.073c0 8.517 1.566 15.883 4.698 22.099 3.182 6.216 7.685 11.013 13.51 14.39 5.873 3.378 12.872 5.066 20.997 5.066ZM469.068 171.192c3.475 0 6.706-.49 9.692-1.469 2.985-.979 5.628-2.398 7.929-4.258 2.3-1.86 4.136-4.062 5.506-6.608h1.028v11.087h21.218v-54.698c0-5.579-1.346-10.376-4.038-14.39-2.643-4.062-6.461-7.17-11.453-9.324-4.993-2.203-10.989-3.304-17.988-3.304-6.852 0-12.824 1.028-17.914 3.084-5.042 2.007-9.031 4.821-11.967 8.443-2.937 3.573-4.65 7.758-5.14 12.555l-.073.807h19.75l.073-.44c.734-2.496 2.3-4.454 4.699-5.874 2.398-1.419 5.555-2.129 9.471-2.129 4.356 0 7.66.979 9.911 2.937 2.301 1.909 3.451 4.625 3.451 8.149v25.036c0 2.79-.759 5.311-2.276 7.562-1.468 2.203-3.499 3.965-6.094 5.287-2.545 1.272-5.457 1.908-8.736 1.908-3.671 0-6.682-.856-9.031-2.569-2.3-1.713-3.451-4.063-3.451-7.048v-.147c0-2.888 1.102-5.189 3.304-6.902 2.252-1.713 5.58-2.692 9.985-2.936l27.092-1.762v-13.142l-30.249 1.835c-9.985.587-17.669 2.961-23.053 7.122-5.385 4.111-8.077 9.764-8.077 16.959v.147c0 4.797 1.126 9.006 3.378 12.628 2.251 3.622 5.359 6.437 9.324 8.444 3.965 2.006 8.541 3.01 13.729 3.01ZM566.901 171.632c7.048 0 13.117-1.248 18.207-3.744 5.14-2.496 9.202-5.947 12.188-10.352 3.035-4.454 4.846-9.569 5.433-15.345l.073-.514-19.97.074-.073.367c-.881 4.062-2.643 7.195-5.286 9.397-2.594 2.203-6.069 3.304-10.426 3.304-3.72 0-6.901-.954-9.544-2.863-2.594-1.958-4.601-4.797-6.02-8.517-1.371-3.72-2.056-8.247-2.056-13.582v-.074c0-5.286.685-9.764 2.056-13.435 1.37-3.671 3.377-6.461 6.02-8.37 2.643-1.958 5.8-2.937 9.471-2.937 4.552 0 8.149 1.224 10.793 3.671 2.643 2.399 4.307 5.531 4.992 9.398l.073.367h19.897l.073-.367c-.538-5.874-2.3-11.038-5.286-15.492-2.937-4.503-6.999-8.027-12.187-10.572-5.189-2.545-11.356-3.818-18.502-3.818-8.223 0-15.271 1.664-21.145 4.993-5.824 3.28-10.303 8.002-13.435 14.17-3.084 6.167-4.626 13.607-4.626 22.319v.147c0 8.761 1.542 16.274 4.626 22.539 3.132 6.217 7.635 10.989 13.509 14.317 5.873 3.28 12.922 4.919 21.145 4.919ZM648.727 170.751c2.105 0 4.063-.098 5.874-.293 1.86-.147 3.426-.343 4.699-.588v-15.858l-2.643.293c-.832.049-1.836.074-3.01.074-3.525 0-6.119-.783-7.783-2.35-1.615-1.615-2.423-4.258-2.423-7.929v-38.031H659.3V89.917h-15.859V70.68h-21.658v19.236h-11.821v16.152h11.821v41.996c0 8.076 2.129 13.876 6.387 17.4 4.307 3.524 11.16 5.286 20.557 5.286Z" />
    </g>
    <defs>
        <clipPath id="a">
            <path fill="#fff" d="M0 0h659v220H0z" />
        </clipPath>
        <clipPath id="b">
            <path fill="#fff" d="M0 20h213.353v190H0z" />
        </clipPath>
    </defs>
</svg>
